icon_installer/data/icons/scalable/actions/show-transparent-background-symbolic.svg

<?xml version="1.0" encoding="UTF-8"?>
<svg height="16px" viewBox="0 0 16 16" width="16px" xmlns="http://www.w3.org/2000/svg">
    <g fill="#222222">
        <path d="m 4 0 v 3.535156 c 1.097656 -0.988281 2.523438 -1.53125 4 -1.535156 v -2 z m 8 0 v 3.53125 c 0.164062 0.144531 0.324219 0.304688 0.46875 0.46875 h 3.53125 v -4 z m -12 4 v 4 h 2 c 0.003906 -1.476562 0.546875 -2.902344 1.535156 -4 z m 14 4 c -0.003906 1.476562 -0.546875 2.902344 -1.535156 4 h 3.535156 v -4 z m -14 4 v 4 h 4 v -3.535156 c -0.164062 -0.144532 -0.320312 -0.300782 -0.464844 -0.464844 z m 12 0.464844 c -1.097656 0.988281 -2.523438 1.53125 -4 1.535156 v 2 h 4 z m 0 0" fill-opacity="0.34902"/>
        <path d="m 14 8 c 0 3.3125 -2.6875 6 -6 6 s -6 -2.6875 -6 -6 s 2.6875 -6 6 -6 s 6 2.6875 6 6 z m 0 0"/>
    </g>
</svg>

<svg xmlns="http://www.w3.org/2000/svg" width="16" height="16"><g fill="#222"><path fill-opacity=".349" d="M4 0v3.535A5.999 5.999 0 0 1 8 2V0zm8 0v3.531c.164.145.324.305.469.469H16V0zM0 4v4h2a5.999 5.999 0 0 1 1.535-4zm14 4a5.999 5.999 0 0 1-1.535 4H16V8zM0 12v4h4v-3.535A5.22 5.22 0 0 1 3.535 12zm12 .465A5.999 5.999 0 0 1 8 14v2h4zm0 0"/><path d="M14 8c0 3.313-2.688 6-6 6s-6-2.688-6-6 2.688-6 6-6 6 2.688 6 6zm0 0"/></g></svg>
